svg/device/plugin_2_fill.svg

<?xml version="1.0" encoding="UTF-8"?>
<svg width="24px" height="24px" viewBox="0 0 24 24" version="1.1" xmlns="http://www.w3.org/2000/svg" xmlns:xlink="http://www.w3.org/1999/xlink">
    <title>plugin_2_fill</title>
    <g id="页面-1" stroke="none" stroke-width="1" fill="none" fill-rule="evenodd">
        <g id="Device" transform="translate(-336.000000, -240.000000)" fill-rule="nonzero">
            <g id="plugin_2_fill" transform="translate(336.000000, 240.000000)">
                 <path d="M24,0 L24,24 L0,24 L0,0 L24,0 Z M12.5934901,23.257841 L12.5819402,23.2595131 L12.5108777,23.2950439 L12.4918791,23.2987469 L12.4918791,23.2987469 L12.4767152,23.2950439 L12.4056548,23.2595131 C12.3958229,23.2563662 12.3870493,23.2590235 12.3821421,23.2649074 L12.3780323,23.275831 L12.360941,23.7031097 L12.3658947,23.7234994 L12.3769048,23.7357139 L12.4804777,23.8096931 L12.4953491,23.8136134 L12.4953491,23.8136134 L12.5071152,23.8096931 L12.6106902,23.7357139 L12.6232938,23.7196733 L12.6232938,23.7196733 L12.6266527,23.7031097 L12.609561,23.275831 C12.6075724,23.2657013 12.6010112,23.2592993 12.5934901,23.257841 L12.5934901,23.257841 Z M12.8583906,23.1452862 L12.8445485,23.1473072 L12.6598443,23.2396597 L12.6498822,23.2499052 L12.6498822,23.2499052 L12.6471943,23.2611114 L12.6650943,23.6906389 L12.6699349,23.7034178 L12.6699349,23.7034178 L12.678386,23.7104931 L12.8793402,23.8032389 C12.8914285,23.8068999 12.9022333,23.8029875 12.9078286,23.7952264 L12.9118235,23.7811639 L12.8776777,23.1665331 C12.8752882,23.1545897 12.8674102,23.1470016 12.8583906,23.1452862 L12.8583906,23.1452862 Z M12.1430473,23.1473072 C12.1332178,23.1423925 12.1221763,23.1452606 12.1156365,23.1525954 L12.1099173,23.1665331 L12.0757714,23.7811639 C12.0751323,23.7926639 12.0828099,23.8018602 12.0926481,23.8045676 L12.108256,23.8032389 L12.3092106,23.7104931 L12.3186497,23.7024347 L12.3186497,23.7024347 L12.3225043,23.6906389 L12.340401,23.2611114 L12.337245,23.2485176 L12.337245,23.2485176 L12.3277531,23.2396597 L12.1430473,23.1473072 Z" id="MingCute" fill-rule="nonzero"></path>
                <path d="M2,9 C2,7.34315 3.34315,6 5,6 L7.85279,6 C8.15014,6 8.33369,5.69148 8.21898,5.41714 C8.16269,5.28251 8.11486,5.14448 8.0827,5 C7.75165,3.51305 8.87451,2 10.5,2 C12.1255,2 13.2483,3.51305 12.9173,5 C12.8851,5.14448 12.8373,5.28251 12.781,5.41714 C12.6663,5.69148 12.8499,6 13.1472,6 L15,6 C16.6569,6 18,7.34315 18,9 L18,10.8528 C18,11.1501 18.3085,11.3337 18.5829,11.219 C18.7175,11.1627 18.8555,11.1149 19,11.0827 C20.4869,10.7517 22,11.8745 22,13.5 C22,15.1255 20.4869,16.2483 19,15.9173 C18.8555,15.8851 18.7175,15.8373 18.5829,15.781 C18.3085,15.6663 18,15.8499 18,16.1472 L18,19 C18,20.6569 16.6569,22 15,22 L13.1066,22 C12.8194,22 12.6341,21.7088 12.7164,21.4337 C12.7583,21.2937 12.7892,21.1502 12.8021,21 C12.9129,19.7075 11.8988,18.5 10.5,18.5 C9.1012,18.5 8.08712,19.7075 8.1979,21 C8.21078,21.1502 8.2417,21.2937 8.28358,21.4337 C8.36589,21.7088 8.18055,22 7.89338,22 L5,22 C3.34315,22 2,20.6569 2,19 L2,16.1066 C2,15.8194 2.29121,15.6341 2.56632,15.7164 C2.7063,15.7583 2.84976,15.7892 3,15.8021 C4.29252,15.9129 5.5,14.8988 5.5,13.5 C5.5,12.1012 4.29252,11.0871 3,11.1979 C2.84976,11.2108 2.7063,11.2417 2.56633,11.2836 C2.29121,11.3659 2,11.1806 2,10.8934 L2,9 Z" id="路径" fill="#09244B"></path>
            </g>
        </g>
    </g>
</svg>

<svg xmlns="http://www.w3.org/2000/svg" width="24" height="24"><g fill="none" fill-rule="nonzero"><path d="M24 0v24H0V0h24ZM12.593 23.258l-.011.002-.071.035-.02.004-.014-.004-.071-.035c-.01-.004-.019-.001-.024.005l-.004.01-.017.428.005.02.01.013.104.074.015.004.012-.004.104-.074.012-.016.004-.017-.017-.427c-.002-.01-.009-.017-.017-.018Zm.265-.113-.013.002-.185.093-.01.01-.003.011.018.43.005.012.008.007.201.093c.012.004.023 0 .029-.008l.004-.014-.034-.614c-.003-.012-.01-.02-.02-.022Zm-.715.002a.023.023 0 0 0-.027.006l-.006.014-.034.614c0 .012.007.02.017.024l.015-.002.201-.093.01-.008.004-.011.017-.43-.003-.012-.01-.01-.184-.092Z"/><path fill="#09244B" d="M2 9a3 3 0 0 1 3-3h2.853c.297 0 .48-.309.366-.583A2.474 2.474 0 0 1 8.083 5c-.331-1.487.792-3 2.417-3 1.626 0 2.748 1.513 2.417 3-.032.144-.08.283-.136.417-.115.274.069.583.366.583H15a3 3 0 0 1 3 3v1.853c0 .297.308.48.583.366.135-.056.273-.104.417-.136 1.487-.331 3 .791 3 2.417s-1.513 2.748-3 2.417a2.475 2.475 0 0 1-.417-.136c-.274-.115-.583.069-.583.366V19a3 3 0 0 1-3 3h-1.893c-.288 0-.473-.291-.39-.566.041-.14.072-.284.085-.434.11-1.293-.903-2.5-2.302-2.5S8.087 19.707 8.198 21c.013.15.044.294.086.434.082.275-.103.566-.39.566H5a3 3 0 0 1-3-3v-2.893c0-.288.291-.473.566-.39.14.041.284.072.434.085 1.293.11 2.5-.903 2.5-2.302S4.293 11.087 3 11.198c-.15.013-.294.044-.434.086-.275.082-.566-.103-.566-.39V9Z"/></g></svg>
